X: 26444
T: Mervyn Pratt
R: jig
M: 6/8
K: Dmajor
d2A B/c/dB|AFD AFD|BG/A/B AFA|B/c/dd ecA|
af/g/a/f/ df/g/a/f/|df/g/a/f/ afd|ec/d/e/c/ Ac/d/e/c/|Ac/d/e/c/ ecA|
BG/A/B AFA|B/c/dd ecA|BAG FAA|d3d3|
A/G/F/E/D DAA|FDD DAA|B/A/G/F/E EBB|GEE ecA|
af/g/a af/g/a|bg/a/b bg/a/b|a/g/f/e/d cAc|d3d3|

